plasma/desktoptheme/Materia/widgets/busywidget.svg

<svg xmlns="http://www.w3.org/2000/svg" width="112" height="41" version="1.1">
 <rect id="hint-rotation-angle" style="fill:#ff00ff" width="3.704" height="3.704" x="0" y="0"/>
 <g id="22-22-busywidget" transform="matrix(3.7773007,0,0,3.7773007,-6.9679581,1.0317159)">
  <rect style="opacity:0.001" width="5.82" height="5.82" x="6.61" y="4.76"/>
  <path style="fill:#8ab4f8" transform="matrix(0.26455883,0,0,0.26455881,0,-0.00117624)" d="m 36,18 a 2,2.0000001 0 0 0 -2,2 2,2.0000001 0 0 0 2,2 2,2.0000001 0 0 0 2,-2 2,2.0000001 0 0 0 -2,-2 z m -6.392578,2.636719 a 2.0000001,2 0 0 0 -1.384766,0.585937 2.0000001,2 0 0 0 0,2.828125 2.0000001,2 0 0 0 2.828125,0 2.0000001,2 0 0 0 0,-2.828125 2.0000001,2 0 0 0 -1.443359,-0.585937 z m 12.726562,0 a 1.9999999,2.0000002 0 0 0 -1.384765,0.585937 1.9999999,2.0000002 0 0 0 0,2.828125 1.9999999,2.0000002 0 0 0 2.828125,0 1.9999999,2.0000002 0 0 0 0,-2.828125 1.9999999,2.0000002 0 0 0 -1.44336,-0.585937 z M 27,27 a 2.0000001,2 0 0 0 -2,2 2.0000001,2 0 0 0 2,2 2.0000001,2 0 0 0 2,-2 2.0000001,2 0 0 0 -2,-2 z m 18,0 a 2.0000001,2 0 0 0 -2,2 2.0000001,2 0 0 0 2,2 2.0000001,2 0 0 0 2,-2 2.0000001,2 0 0 0 -2,-2 z m -15.392578,6.363281 a 1.9999999,2.0000002 0 0 0 -1.384766,0.585938 1.9999999,2.0000002 0 0 0 0,2.828125 1.9999999,2.0000002 0 0 0 2.828125,0 1.9999999,2.0000002 0 0 0 0,-2.828125 1.9999999,2.0000002 0 0 0 -1.443359,-0.585938 z m 12.726562,0 a 2.0000001,2 0 0 0 -1.384765,0.585938 2.0000001,2 0 0 0 0,2.828125 2.0000001,2 0 0 0 2.828125,0 2.0000001,2 0 0 0 0,-2.828125 2.0000001,2 0 0 0 -1.44336,-0.585938 z M 36,36 a 2,2.0000001 0 0 0 -2,2 2,2.0000001 0 0 0 2,2 2,2.0000001 0 0 0 2,-2 2,2.0000001 0 0 0 -2,-2 z"/>
 </g>
 <g id="16-16-busywidget" transform="matrix(3.7798254,0,0,3.7798254,0,0.9981089)">
  <rect style="opacity:0.001" width="4.233" height="4.233" x="0" y="6.35"/>
  <path style="fill:#8ab4f8" d="M 2.1164706,6.3482352 A 0.39683825,0.39683821 0 0 0 1.7196324,6.7450734 0.39683825,0.39683821 0 0 0 2.1164706,7.1419116 0.39683825,0.39683821 0 0 0 2.5133089,6.7450734 0.39683825,0.39683821 0 0 0 2.1164706,6.3482352 Z M 0.89495292,6.8520337 a 0.39683825,0.39683821 0 0 0 -0.27489316,0.1162612 0.39683825,0.39683821 0 0 0 0,0.5611541 0.39683825,0.39683821 0 0 0 0.56115414,0 0.39683825,0.39683821 0 0 0 0,-0.5611541 0.39683825,0.39683821 0 0 0 -0.28626098,-0.1162612 z m 2.43166778,0 a 0.39683825,0.39683821 0 0 0 -0.2748933,0.1162612 0.39683825,0.39683821 0 0 0 0,0.5611541 0.39683825,0.39683821 0 0 0 0.5611541,0 0.39683825,0.39683821 0 0 0 0,-0.5611541 A 0.39683825,0.39683821 0 0 0 3.3266207,6.8520337 Z M 0.39683825,8.0678675 A 0.39683825,0.39683821 0 0 0 0,8.4647057 0.39683825,0.39683821 0 0 0 0.39683825,8.8615439 0.39683825,0.39683821 0 0 0 0.79367649,8.4647057 0.39683825,0.39683821 0 0 0 0.39683825,8.0678675 Z m 3.43926475,0 A 0.39683825,0.39683821 0 0 0 3.4392648,8.4647057 0.39683825,0.39683821 0 0 0 3.836103,8.8615439 0.39683825,0.39683821 0 0 0 4.2329413,8.4647057 0.39683825,0.39683821 0 0 0 3.836103,8.0678675 Z M 0.89495292,9.2837012 a 0.39683825,0.39683821 0 0 0 -0.27489316,0.1162611 0.39683825,0.39683821 0 0 0 0,0.5611541 0.39683825,0.39683821 0 0 0 0.56115414,0 0.39683825,0.39683821 0 0 0 0,-0.5611541 0.39683825,0.39683821 0 0 0 -0.28626098,-0.1162611 z m 2.43166778,0 a 0.39683825,0.39683821 0 0 0 -0.2748933,0.1162611 0.39683825,0.39683821 0 0 0 0,0.5611541 0.39683825,0.39683821 0 0 0 0.5611541,0 0.39683825,0.39683821 0 0 0 0,-0.5611541 A 0.39683825,0.39683821 0 0 0 3.3266207,9.2837012 Z M 2.1164706,9.7874997 A 0.39683825,0.39683821 0 0 0 1.7196324,10.184338 0.39683825,0.39683821 0 0 0 2.1164706,10.581176 0.39683825,0.39683821 0 0 0 2.5133089,10.184338 0.39683825,0.39683821 0 0 0 2.1164706,9.7874997 Z"/>
 </g>
 <g id="busywidget" transform="matrix(7.5596507,0,0,7.5596507,44,-39.003781)">
  <rect style="opacity:0.001" width="4.233" height="4.233" x="0" y="6.35"/>
  <path style="fill:#8ab4f8" d="M 2.1164706,6.3482352 A 0.39683825,0.39683821 0 0 0 1.7196324,6.7450734 0.39683825,0.39683821 0 0 0 2.1164706,7.1419116 0.39683825,0.39683821 0 0 0 2.5133089,6.7450734 0.39683825,0.39683821 0 0 0 2.1164706,6.3482352 Z M 0.89495292,6.8520337 a 0.39683825,0.39683821 0 0 0 -0.27489316,0.1162612 0.39683825,0.39683821 0 0 0 0,0.5611541 0.39683825,0.39683821 0 0 0 0.56115414,0 0.39683825,0.39683821 0 0 0 0,-0.5611541 0.39683825,0.39683821 0 0 0 -0.28626098,-0.1162612 z m 2.43166778,0 a 0.39683825,0.39683821 0 0 0 -0.2748933,0.1162612 0.39683825,0.39683821 0 0 0 0,0.5611541 0.39683825,0.39683821 0 0 0 0.5611541,0 0.39683825,0.39683821 0 0 0 0,-0.5611541 A 0.39683825,0.39683821 0 0 0 3.3266207,6.8520337 Z M 0.39683825,8.0678675 A 0.39683825,0.39683821 0 0 0 0,8.4647057 0.39683825,0.39683821 0 0 0 0.39683825,8.8615439 0.39683825,0.39683821 0 0 0 0.79367649,8.4647057 0.39683825,0.39683821 0 0 0 0.39683825,8.0678675 Z m 3.43926475,0 A 0.39683825,0.39683821 0 0 0 3.4392648,8.4647057 0.39683825,0.39683821 0 0 0 3.836103,8.8615439 0.39683825,0.39683821 0 0 0 4.2329413,8.4647057 0.39683825,0.39683821 0 0 0 3.836103,8.0678675 Z M 0.89495292,9.2837012 a 0.39683825,0.39683821 0 0 0 -0.27489316,0.1162611 0.39683825,0.39683821 0 0 0 0,0.5611541 0.39683825,0.39683821 0 0 0 0.56115414,0 0.39683825,0.39683821 0 0 0 0,-0.5611541 0.39683825,0.39683821 0 0 0 -0.28626098,-0.1162611 z m 2.43166778,0 a 0.39683825,0.39683821 0 0 0 -0.2748933,0.1162611 0.39683825,0.39683821 0 0 0 0,0.5611541 0.39683825,0.39683821 0 0 0 0.5611541,0 0.39683825,0.39683821 0 0 0 0,-0.5611541 A 0.39683825,0.39683821 0 0 0 3.3266207,9.2837012 Z M 2.1164706,9.7874997 A 0.39683825,0.39683821 0 0 0 1.7196324,10.184338 0.39683825,0.39683821 0 0 0 2.1164706,10.581176 0.39683825,0.39683821 0 0 0 2.5133089,10.184338 0.39683825,0.39683821 0 0 0 2.1164706,9.7874997 Z"/>
 </g>
 <g id="stopped" transform="matrix(3.7795628,0,0,3.7795628,-11.992336,0.98955013)">
  <rect style="opacity:0.001" width="8.466" height="8.466" x="24.34" y="2.12"/>
  <path style="fill:#8ab4f8" d="m 28.572354,2.1152942 a 4.2329413,4.2329412 0 0 0 -4.232942,4.232941 4.2329413,4.2329412 0 0 0 4.232942,4.2329408 4.2329413,4.2329412 0 0 0 4.232941,-4.2329408 4.2329413,4.2329412 0 0 0 -4.232941,-4.232941 z m 0,1.5873529 a 2.6455882,2.6455881 0 0 1 2.645588,2.6455881 2.6455882,2.6455881 0 0 1 -2.645588,2.6455881 2.6455882,2.6455881 0 0 1 -2.645589,-2.6455881 2.6455882,2.6455881 0 0 1 2.645589,-2.6455881 z"/>
 </g>
</svg>

<?xml version="1.0" encoding="UTF-8"?>
<svg width="112" height="41" version="1.1" xmlns="http://www.w3.org/2000/svg">
 <rect id="hint-rotation-angle" width="3.704" height="3.704" fill="#f0f"/>
 <g id="22-22-busywidget" transform="matrix(3.7773 0 0 3.7773 -6.968 1.0317)">
  <rect x="6.61" y="4.76" width="5.82" height="5.82" opacity=".001"/>
  <path transform="matrix(.26456 0 0 .26456 0 -.0011762)" d="m36 18a2 2 0 0 0-2 2 2 2 0 0 0 2 2 2 2 0 0 0 2-2 2 2 0 0 0-2-2zm-6.3926 2.6367a2 2 0 0 0-1.3848 0.58594 2 2 0 0 0 0 2.8281 2 2 0 0 0 2.8281 0 2 2 0 0 0 0-2.8281 2 2 0 0 0-1.4434-0.58594zm12.727 0a2 2 0 0 0-1.3848 0.58594 2 2 0 0 0 0 2.8281 2 2 0 0 0 2.8281 0 2 2 0 0 0 0-2.8281 2 2 0 0 0-1.4434-0.58594zm-15.334 6.3633a2 2 0 0 0-2 2 2 2 0 0 0 2 2 2 2 0 0 0 2-2 2 2 0 0 0-2-2zm18 0a2 2 0 0 0-2 2 2 2 0 0 0 2 2 2 2 0 0 0 2-2 2 2 0 0 0-2-2zm-15.393 6.3633a2 2 0 0 0-1.3848 0.58594 2 2 0 0 0 0 2.8281 2 2 0 0 0 2.8281 0 2 2 0 0 0 0-2.8281 2 2 0 0 0-1.4434-0.58594zm12.727 0a2 2 0 0 0-1.3848 0.58594 2 2 0 0 0 0 2.8281 2 2 0 0 0 2.8281 0 2 2 0 0 0 0-2.8281 2 2 0 0 0-1.4434-0.58594zm-6.334 2.6367a2 2 0 0 0-2 2 2 2 0 0 0 2 2 2 2 0 0 0 2-2 2 2 0 0 0-2-2z" fill="#8ab4f8"/>
 </g>
 <g id="16-16-busywidget" transform="matrix(3.7798 0 0 3.7798 0 .99811)">
  <rect y="6.35" width="4.233" height="4.233" opacity=".001"/>
  <path d="m2.1165 6.3482a0.39684 0.39684 0 0 0-0.39684 0.39684 0.39684 0.39684 0 0 0 0.39684 0.39684 0.39684 0.39684 0 0 0 0.39684-0.39684 0.39684 0.39684 0 0 0-0.39684-0.39684zm-1.2215 0.5038a0.39684 0.39684 0 0 0-0.27489 0.11626 0.39684 0.39684 0 0 0 0 0.56115 0.39684 0.39684 0 0 0 0.56115 0 0.39684 0.39684 0 0 0 0-0.56115 0.39684 0.39684 0 0 0-0.28626-0.11626zm2.4317 0a0.39684 0.39684 0 0 0-0.27489 0.11626 0.39684 0.39684 0 0 0 0 0.56115 0.39684 0.39684 0 0 0 0.56115 0 0.39684 0.39684 0 0 0 0-0.56115 0.39684 0.39684 0 0 0-0.28626-0.11626zm-2.9298 1.2158a0.39684 0.39684 0 0 0-0.39684 0.39684 0.39684 0.39684 0 0 0 0.39684 0.39684 0.39684 0.39684 0 0 0 0.39684-0.39684 0.39684 0.39684 0 0 0-0.39684-0.39684zm3.4393 0a0.39684 0.39684 0 0 0-0.39684 0.39684 0.39684 0.39684 0 0 0 0.39684 0.39684 0.39684 0.39684 0 0 0 0.39684-0.39684 0.39684 0.39684 0 0 0-0.39684-0.39684zm-2.9412 1.2158a0.39684 0.39684 0 0 0-0.27489 0.11626 0.39684 0.39684 0 0 0 0 0.56115 0.39684 0.39684 0 0 0 0.56115 0 0.39684 0.39684 0 0 0 0-0.56115 0.39684 0.39684 0 0 0-0.28626-0.11626zm2.4317 0a0.39684 0.39684 0 0 0-0.27489 0.11626 0.39684 0.39684 0 0 0 0 0.56115 0.39684 0.39684 0 0 0 0.56115 0 0.39684 0.39684 0 0 0 0-0.56115 0.39684 0.39684 0 0 0-0.28626-0.11626zm-1.2102 0.5038a0.39684 0.39684 0 0 0-0.39684 0.39684 0.39684 0.39684 0 0 0 0.39684 0.39684 0.39684 0.39684 0 0 0 0.39684-0.39684 0.39684 0.39684 0 0 0-0.39684-0.39684z" fill="#8ab4f8"/>
 </g>
 <g id="busywidget" transform="matrix(7.5597 0 0 7.5597 44 -39.004)">
  <rect y="6.35" width="4.233" height="4.233" opacity=".001"/>
  <path d="m2.1165 6.3482a0.39684 0.39684 0 0 0-0.39684 0.39684 0.39684 0.39684 0 0 0 0.39684 0.39684 0.39684 0.39684 0 0 0 0.39684-0.39684 0.39684 0.39684 0 0 0-0.39684-0.39684zm-1.2215 0.5038a0.39684 0.39684 0 0 0-0.27489 0.11626 0.39684 0.39684 0 0 0 0 0.56115 0.39684 0.39684 0 0 0 0.56115 0 0.39684 0.39684 0 0 0 0-0.56115 0.39684 0.39684 0 0 0-0.28626-0.11626zm2.4317 0a0.39684 0.39684 0 0 0-0.27489 0.11626 0.39684 0.39684 0 0 0 0 0.56115 0.39684 0.39684 0 0 0 0.56115 0 0.39684 0.39684 0 0 0 0-0.56115 0.39684 0.39684 0 0 0-0.28626-0.11626zm-2.9298 1.2158a0.39684 0.39684 0 0 0-0.39684 0.39684 0.39684 0.39684 0 0 0 0.39684 0.39684 0.39684 0.39684 0 0 0 0.39684-0.39684 0.39684 0.39684 0 0 0-0.39684-0.39684zm3.4393 0a0.39684 0.39684 0 0 0-0.39684 0.39684 0.39684 0.39684 0 0 0 0.39684 0.39684 0.39684 0.39684 0 0 0 0.39684-0.39684 0.39684 0.39684 0 0 0-0.39684-0.39684zm-2.9412 1.2158a0.39684 0.39684 0 0 0-0.27489 0.11626 0.39684 0.39684 0 0 0 0 0.56115 0.39684 0.39684 0 0 0 0.56115 0 0.39684 0.39684 0 0 0 0-0.56115 0.39684 0.39684 0 0 0-0.28626-0.11626zm2.4317 0a0.39684 0.39684 0 0 0-0.27489 0.11626 0.39684 0.39684 0 0 0 0 0.56115 0.39684 0.39684 0 0 0 0.56115 0 0.39684 0.39684 0 0 0 0-0.56115 0.39684 0.39684 0 0 0-0.28626-0.11626zm-1.2102 0.5038a0.39684 0.39684 0 0 0-0.39684 0.39684 0.39684 0.39684 0 0 0 0.39684 0.39684 0.39684 0.39684 0 0 0 0.39684-0.39684 0.39684 0.39684 0 0 0-0.39684-0.39684z" fill="#8ab4f8"/>
 </g>
 <g id="stopped" transform="matrix(3.7796 0 0 3.7796 -11.992 .98955)">
  <rect x="24.34" y="2.12" width="8.466" height="8.466" opacity=".001"/>
  <path d="m28.572 2.1153a4.2329 4.2329 0 0 0-4.2329 4.2329 4.2329 4.2329 0 0 0 4.2329 4.2329 4.2329 4.2329 0 0 0 4.2329-4.2329 4.2329 4.2329 0 0 0-4.2329-4.2329zm0 1.5874a2.6456 2.6456 0 0 1 2.6456 2.6456 2.6456 2.6456 0 0 1-2.6456 2.6456 2.6456 2.6456 0 0 1-2.6456-2.6456 2.6456 2.6456 0 0 1 2.6456-2.6456z" fill="#8ab4f8"/>
 </g>
</svg>
